icon-themes/breeze_svg/cmd/sc_flowchartshapes.flowchart-predefined-process.svg

<svg viewBox="0 0 16 16" xmlns="http://www.w3.org/2000/svg">/&gt;<path d="m2 2v12h3v-12zm5 0v12h2 .5.5v-12h-.5-.5zm5 0v12h2 1v-12h-1z" fill="#4d4d4d"/></svg>

<svg xmlns="http://www.w3.org/2000/svg" viewBox="0 0 16 16">
     />
 <path 
     style="fill:#4d4d4d" 
     d="M 2 2 L 2 14 L 5 14 L 5 2 L 2 2 z M 7 2 L 7 14 L 9 14 L 9.5 14 L 10 14 L 10 2 L 9.5 2 L 9 2 L 7 2 z M 12 2 L 12 14 L 14 14 L 15 14 L 15 2 L 14 2 L 12 2 z "
     />
 </svg>
